X:83
T:Untitled. JBa.82
M:6/8
L:1/8
Q:3/8=120
C:At end is written 'November 20 1769'
S:Joseph Barnes MS,Carlisle,1762.
R:.march
O:England
A:Carlisle
N:The S and DC markings are in the manuscript 1 - almost illegible
H:PR - Could be pipe tune.1st part ok,2nd part is same as 1st.
Z:vmp.C.Graebe.
K:A minor
"_No key/time sig,as writ,See note"
A | dAd fdf | a4g2 | fed faf | e4"S"A | dAd fdf |"DC" a4g2 |!
fed fge | "S"d6 |\
fg | afg aba | gef gag | fed faf | e4"1st"A2 :|!
|: A,2 DA,D FDF | A3G3 |FED FAF E/A,/ |\
"S" DA,D FDF | " Dacapo"A3G3 | FED FGE |!
"S 1"D4 Fg | AFG ABA |\
GEF GAG | FED FAF | E4A,2 |]

